X:1
T:Wonderful Story of Love
T:Wonderful Story of Love
T:John Merritte Driver
T:John Merritte Driver, 1892
T:Public Domain Courtesy of the Cyber Hymnal™
T:Public Domain Courtesy of the Cyber Hymnal™
C:John Merritte Driver
Z:Public Domain
Z:Courtesy of the Cyber Hymnal™
%%score 1 ( 2 3 )
L:1/8
Q:1/4=110
M:6/8
K:C
V:1 treble 
V:2 bass 
V:3 bass 
V:1
 [Ec][Ec][Ec] [Ec][GB][FA] | [EG]6 | [Ec][Ec][Ec] [DB]2 [Fd] | [Ec]6 | [Ec][Ec][Ec] [Ec][GB][FA] | %5
w: 1.~Won- der- ful stor- y of|love;|Tell it to me a-|gain;|Won- der- ful stor- y of|
w: 2.~Won- der- ful stor- y of|love;|Though you are far a-|way;|Won- der- ful stor- y of|
w: 3.~Won- der- ful stor- y of|love;|Je- sus pro- vides a|rest;|Won- der- ful stor- y of|
 [EG]6 | [Ec][EB][Ec] [Ge]2 [Fd] | [Ec]6 | [Ac][Ac][Ac] [Ac][GB][FA] | [FA]3 [EG]3 | %10
w: love;|Wake the im- mor- tal|strain!|An- gels with rap- ture an-|nounce it,|
w: love;|Still He doth call to-|day;|Call- ing from Cal- va- ry’s|mount- ain,|
w: love;|For all the pure and|blest,|Rest in those man- sions a-|bove us,|
 [Ec][Ec][Ec] [Ec][DB][Ec] | [Fd]3 [Fd]3 | [Ge][Ge][Ge] [Ge][Gd][Gc] | [Fd]3 [FA]3 | %14
w: Shep- herds with won- der re-|ceive it;|Sin- ner, O won’t you be-|lieve it?|
w: Down from the crys- tal bright|foun- tain,|E’en from the dawn of cre-|a- tion,|
w: With those who’ve gone on be-|fore us,|Sing- ing the rap- tur- ous|chor- us,|
 [EG][EG][Ec] [FB][FA][FB] | [Ec]6 ||"^Refrain" [EG]3 [FA]3 | [EG]6 | [Ec]3 [Fc]3 | [Ec]6 | %20
w: Won- der- ful stor- y of|love.|||||
w: Won- der- ful stor- y of|love.|Won- der-|ful!|Won- der-|ful!|
w: Won- der- ful stor- y of|love.|||||
 [Ge]3 [Ec]3 | ([Fd]3 [FA]3) | [EG][EG][Ec] [FB][FA][FB] | [Ec]6 |] %24
w: ||||
w: Won- der-|ful, *|won- der- ful stor- y of|love.|
w: ||||
V:2
 z6 | z6 | [C,G,][C,G,][C,G,] G,2 [G,B,] | [C,C]6 | z6 | z6 | [C,G,][C,G,][C,G,] [G,C]2 [G,B,] | %7
w: ||~ ~ ~ ~ ~|~|||~ ~ ~ ~ ~|
 [C,C]6 | [F,C][F,C][F,C] [F,C][F,C][F,C] | [C,C]3 [C,C]3 | [C,G,][C,G,][C,G,] [C,G,][C,G,][C,G,] | %11
w: ~|~ ~ ~ ~ ~ ~|~ ~|~ ~ ~ ~ ~ ~|
 [G,B,]3 [G,B,]3 | [C,C][C,C][C,C] [C,C][D,B,][E,_B,] | [F,A,]3 [F,C]3 | %14
w: ~ ~|~ ~ ~ ~ ~ ~|~ ~|
 [G,C][G,C][G,C] [G,D][G,D][G,D] | [C,C]6 || [C,C][C,C][C,C] [C,C][C,C][C,C] | [C,C]6 | %18
w: ~ ~ ~ ~ ~ ~|~|Won- der- ful stor- y of|love;|
 [C,G,][C,G,][C,G,] [C,A,][C,A,][C,A,] | [C,G,]6 | [C,C][C,C][C,C] [C,G,][C,G,][C,G,] | %21
w: Won- der- ful stor- y of|love;|Won- der- ful stor- y of|
 ([F,A,]3 [F,C]3) | [G,C][G,C][G,C] [G,D][G,D][G,D] | [C,C]6 |] %24
w: love; *|||
V:3
 x6 | x6 | x3 G,2 x | x6 | x6 | x6 | x6 | x6 | x6 | x6 | x6 | x6 | x6 | x6 | x6 | x6 || x6 | x6 | %18
 x6 | x6 | x6 | x6 | x6 | x6 |] %24

